X:461
T: Jin chi he
N: C1496
O: China, Yunnan, Kunming
S: II, 85]
R: Shange]
M: 2/4
L: 1/16
K: F
c2ccd2dc2 | g8- | g4g2g2 | f8d2c2 | c4d2dc | f4
cdc2c2d2 | c4G2G2F2C2 | F2G2c2d2G2G2 | F8 | C8
f2ddd2c2 | f2ddd2c2 | f2g2A2c2 | f4c2c6 | GAGFG4
F2G2 | c2d2c4G2G2 | F4c2c2 | GAGFF2C2 | G2A2G2G2 | F8 | C8

